art/system/pcfx.svg

<?xml version="1.0" encoding="utf-8"?>
<svg version="1.1" viewBox="0 0 264 102" xmlns="http://www.w3.org/2000/svg">
  <g transform="matrix(0.44, 0, 0, 0.439602, 0, 0)">
    <path d="M 42.527 140.618 C 53.285 140.614 63.997 139.957 74.103 136.11 C 101.133 126.796 119.041 98.232 118.147 70.034 C 117.363 56.212 112.68 42.535 104.325 31.457 C 91.883 13.869 70.213 3.894 48.837 4.427 L 0.754 4.406 L 0.754 45.036 L 0.626 45.594 L 0.754 45.586 L 0.754 194.039 L 20.32 194.039 L 20.32 140.618 M 20.128 21.93 C 31.146 21.909 42.16 21.674 53.157 22.182 C 69.531 23.268 85.441 32.412 93.455 46.915 C 103.494 64.078 102.348 87.303 89.97 102.978 C 81.334 114.61 67.277 122.054 52.752 122.288 C 41.947 122.437 31.363 122.356 20.32 122.356 L 20.128 21.93 Z" style="fill: rgb(255, 255, 255);"/>
    <path d="M 46.647 140.579" style="fill: rgb(255, 255, 255);"/>
    <path d="M 330.801 113.477 L 330.801 76.625 L 302.015 76.625 C 303.971 83.583 305.04 90.916 305.04 98.5 C 305.04 103.622 304.542 108.62 303.63 113.477 L 330.801 113.477 Z" style="fill: rgb(255, 255, 255);"/>
    <path d="M 296.591 134.444 C 283.37 160.971 255.991 179.199 224.337 179.199 C 179.766 179.199 143.634 143.068 143.634 98.496 C 143.634 53.928 179.766 17.793 224.337 17.793 C 253.166 17.793 278.445 32.919 292.718 55.654 L 313.012 55.654 C 297.077 22.727 263.375 0 224.333 0 C 169.936 0 125.837 44.099 125.837 98.496 C 125.837 152.897 169.936 196.996 224.333 196.996 C 266.042 196.996 301.666 171.061 316.029 134.444 L 296.591 134.444 Z" style="fill: rgb(255, 255, 255);"/>
    <polygon points="441.087 42.003 441.087 4.406 382.241 4.406 365.65 4.406 346.212 4.406 346.212 194.103 382.241 194.103 382.241 113.477 438.377 113.477 438.377 76.625 382.241 76.625 382.241 42.003" style="fill: rgb(255, 255, 255);"/>
    <polygon points="592.143 194.103 535.786 95.539 587.891 4.406 544.529 4.406 514.103 57.618 483.681 4.406 440.32 4.406 492.424 95.539 436.067 194.103 479.429 194.103 514.103 133.46 548.781 194.103" style="fill: rgb(255, 255, 255);"/>
    <path d="M 20.643 231.64 L 20.643 212.041 L 12.36 231.64 L 10.456 231.64 L 2.203 212.041 L 2.203 231.64 L 0 231.64 L 0 209.625 L 3.426 209.625 L 11.44 228.364 L 19.421 209.625 L 22.85 209.625 L 22.85 231.64 L 20.643 231.64 Z" style="fill: rgb(255, 255, 255);"/>
    <path d="M 34.657 232.028 C 30.222 232.028 27.179 229.348 27.179 223.362 L 27.179 209.625 L 29.386 209.625 L 29.386 223.362 C 29.386 227.857 31.236 230.004 34.687 230.004 C 38.083 230.004 39.962 227.861 39.962 223.362 L 39.962 209.625 L 42.164 209.625 L 42.164 223.362 C 42.164 229.348 39.127 232.028 34.657 232.028 Z" style="fill: rgb(255, 255, 255);"/>
    <path d="M 46.502 231.64 L 46.502 209.625 L 48.709 209.625 L 48.709 229.642 L 57.823 229.642 L 57.823 231.64 L 46.502 231.64 Z" style="fill: rgb(255, 255, 255);"/>
    <path d="M 63.924 211.623 L 63.924 231.64 L 61.721 231.64 L 61.721 211.623 L 56.685 211.623 L 56.685 209.629 L 68.96 209.629 L 68.96 211.623 L 63.924 211.623 Z" style="fill: rgb(255, 255, 255);"/>
    <path d="M 71.244 231.64 L 71.244 209.625 L 73.451 209.625 L 73.451 231.64 L 71.244 231.64 Z" style="fill: rgb(255, 255, 255);"/>
    <path d="M 98.441 231.64 L 98.441 212.041 L 90.158 231.64 L 88.253 231.64 L 80 212.041 L 80 231.64 L 77.797 231.64 L 77.797 209.625 L 81.223 209.625 L 89.233 228.364 L 97.218 209.625 L 100.643 209.625 L 100.643 231.64 L 98.441 231.64 Z" style="fill: rgb(255, 255, 255);"/>
    <path d="M 104.981 231.64 L 104.981 209.625 L 117.013 209.625 L 117.013 211.619 L 107.184 211.619 L 107.184 219.514 L 116.685 219.514 L 116.685 221.508 L 107.184 221.508 L 107.184 229.642 L 117.013 229.642 L 117.013 231.64 L 104.981 231.64 Z" style="fill: rgb(255, 255, 255);"/>
    <path d="M 126.689 231.64 L 120.758 231.64 L 120.758 209.625 L 125.944 209.625 C 129.936 209.625 132.258 210.102 134.346 211.355 C 137.622 213.289 139.348 216.566 139.348 220.707 C 139.348 227.056 135.296 231.64 126.689 231.64 Z M 133.123 213.051 C 131.453 212.041 129.369 211.623 126.033 211.623 L 122.965 211.623 L 122.965 229.646 L 126.033 229.646 C 129.936 229.646 132.199 229.08 133.958 227.682 C 135.982 226.042 137.115 223.511 137.115 220.622 C 137.115 217.341 135.654 214.572 133.123 213.051 Z" style="fill: rgb(255, 255, 255);"/>
    <path d="M 142.731 231.64 L 142.731 209.625 L 144.938 209.625 L 144.938 231.64 L 142.731 231.64 Z" style="fill: rgb(255, 255, 255);"/>
    <path d="M 166.323 231.64 L 163.132 224.222 L 152.885 224.222 L 149.668 231.64 L 147.346 231.64 L 156.787 209.625 L 159.263 209.625 L 168.735 231.64 L 166.323 231.64 Z M 158.04 212.13 L 153.72 222.228 L 162.271 222.228 L 158.04 212.13 Z" style="fill: rgb(255, 255, 255);"/>
    <path d="M 179.203 231.64 L 179.203 209.625 L 191.24 209.625 L 191.24 211.619 L 181.406 211.619 L 181.406 219.514 L 190.912 219.514 L 190.912 221.508 L 181.406 221.508 L 181.406 229.642 L 191.24 229.642 L 191.24 231.64 L 179.203 231.64 Z" style="fill: rgb(255, 255, 255);"/>
    <path d="M 210.298 231.64 L 197.188 212.279 L 197.188 231.64 L 194.981 231.64 L 194.981 209.625 L 197.963 209.625 L 210.294 227.887 L 210.294 209.625 L 212.501 209.625 L 212.501 231.64 L 210.298 231.64 Z" style="fill: rgb(255, 255, 255);"/>
    <path d="M 222.02 211.623 L 222.02 231.64 L 219.817 231.64 L 219.817 211.623 L 214.781 211.623 L 214.781 209.629 L 227.056 209.629 L 227.056 211.623 L 222.02 211.623 Z" style="fill: rgb(255, 255, 255);"/>
    <path d="M 229.34 231.64 L 229.34 209.625 L 241.376 209.625 L 241.376 211.619 L 231.547 211.619 L 231.547 219.514 L 241.048 219.514 L 241.048 221.508 L 231.547 221.508 L 231.547 229.642 L 241.376 229.642 L 241.376 231.64 L 229.34 231.64 Z" style="fill: rgb(255, 255, 255);"/>
    <path d="M 253.553 223.417 L 259.719 231.64 L 256.979 231.64 L 249.561 221.662 C 255.726 221.662 257.81 220.592 257.81 216.63 C 257.81 212.965 255.548 211.623 250.422 211.623 L 247.324 211.623 L 247.324 231.64 L 245.121 231.64 L 245.121 209.625 L 250.571 209.625 C 257.482 209.625 260.043 212.13 260.043 216.715 C 260.047 220.618 257.78 222.974 253.553 223.417 Z" style="fill: rgb(255, 255, 255);"/>
    <path d="M 268.202 211.623 L 268.202 231.64 L 265.995 231.64 L 265.995 211.623 L 260.963 211.623 L 260.963 209.629 L 273.234 209.629 L 273.234 211.623 L 268.202 211.623 Z" style="fill: rgb(255, 255, 255);"/>
    <path d="M 291.074 231.64 L 287.887 224.222 L 277.635 224.222 L 274.418 231.64 L 272.096 231.64 L 281.538 209.625 L 284.014 209.625 L 293.485 231.64 L 291.074 231.64 Z M 282.791 212.13 L 278.47 222.228 L 287.017 222.228 L 282.791 212.13 Z" style="fill: rgb(255, 255, 255);"/>
    <path d="M 295.884 231.64 L 295.884 209.625 L 298.091 209.625 L 298.091 231.64 L 295.884 231.64 Z" style="fill: rgb(255, 255, 255);"/>
    <path d="M 317.746 231.64 L 304.64 212.279 L 304.64 231.64 L 302.433 231.64 L 302.433 209.625 L 305.411 209.625 L 317.746 227.887 L 317.746 209.625 L 319.953 209.625 L 319.953 231.64 L 317.746 231.64 Z" style="fill: rgb(255, 255, 255);"/>
    <path d="M 344.934 231.64 L 344.934 212.041 L 336.651 231.64 L 334.746 231.64 L 326.493 212.041 L 326.493 231.64 L 324.291 231.64 L 324.291 209.625 L 327.716 209.625 L 335.731 228.364 L 343.711 209.625 L 347.137 209.625 L 347.137 231.64 L 344.934 231.64 Z" style="fill: rgb(255, 255, 255);"/>
    <path d="M 351.474 231.64 L 351.474 209.625 L 363.507 209.625 L 363.507 211.619 L 353.677 211.619 L 353.677 219.514 L 363.179 219.514 L 363.179 221.508 L 353.677 221.508 L 353.677 229.642 L 363.507 229.642 L 363.507 231.64 L 351.474 231.64 Z" style="fill: rgb(255, 255, 255);"/>
    <path d="M 382.565 231.64 L 369.455 212.279 L 369.455 231.64 L 367.252 231.64 L 367.252 209.625 L 370.23 209.625 L 382.565 227.887 L 382.565 209.625 L 384.768 209.625 L 384.768 231.64 L 382.565 231.64 Z" style="fill: rgb(255, 255, 255);"/>
    <path d="M 394.291 211.623 L 394.291 231.64 L 392.084 231.64 L 392.084 211.623 L 387.052 211.623 L 387.052 209.629 L 399.323 209.629 L 399.323 211.623 L 394.291 211.623 Z" style="fill: rgb(255, 255, 255);"/>
    <path d="M 416.114 222.735 L 411.883 222.735 L 411.883 231.64 L 409.676 231.64 L 409.676 209.625 L 415.756 209.625 C 421.802 209.625 424.244 211.679 424.244 216.297 C 424.248 220.469 422.101 222.735 416.114 222.735 Z M 415.011 211.623 L 411.883 211.623 L 411.883 220.737 L 415.961 220.737 C 420.341 220.737 422.011 219.489 422.011 216.297 C 422.011 211.832 419.212 211.623 415.011 211.623 Z" style="fill: rgb(255, 255, 255);"/>
    <path d="M 427.124 231.64 L 427.124 209.625 L 429.331 209.625 L 429.331 229.642 L 438.449 229.642 L 438.449 231.64 L 427.124 231.64 Z" style="fill: rgb(255, 255, 255);"/>
    <path d="M 458.786 231.64 L 455.594 224.222 L 445.347 224.222 L 442.13 231.64 L 439.808 231.64 L 449.25 209.625 L 451.726 209.625 L 461.197 231.64 L 458.786 231.64 Z M 450.503 212.13 L 446.182 222.228 L 454.734 222.228 L 450.503 212.13 Z" style="fill: rgb(255, 255, 255);"/>
    <path d="M 468.99 224.282 L 468.99 231.64 L 466.787 231.64 L 466.787 224.282 L 459.161 209.625 L 461.602 209.625 L 467.857 221.96 L 474.265 209.625 L 476.677 209.625 L 468.99 224.282 Z" style="fill: rgb(255, 255, 255);"/>
    <path d="M 478.811 231.64 L 478.811 209.625 L 490.848 209.625 L 490.848 211.619 L 481.014 211.619 L 481.014 219.514 L 490.52 219.514 L 490.52 221.508 L 481.014 221.508 L 481.014 229.642 L 490.848 229.642 L 490.848 231.64 L 478.811 231.64 Z" style="fill: rgb(255, 255, 255);"/>
    <path d="M 503.021 223.417 L 509.186 231.64 L 506.447 231.64 L 499.029 221.662 C 505.194 221.662 507.282 220.592 507.282 216.63 C 507.282 212.965 505.019 211.623 499.893 211.623 L 496.796 211.623 L 496.796 231.64 L 494.589 231.64 L 494.589 209.625 L 500.038 209.625 C 506.949 209.625 509.514 212.13 509.514 216.715 C 509.519 220.618 507.252 222.974 503.021 223.417 Z" style="fill: rgb(255, 255, 255);"/>
    <path d="M 526.988 222.735 L 522.757 222.735 L 522.757 231.64 L 520.554 231.64 L 520.554 209.625 L 526.63 209.625 C 532.676 209.625 535.121 211.679 535.121 216.297 C 535.121 220.469 532.978 222.735 526.988 222.735 Z M 525.888 211.623 L 522.757 211.623 L 522.757 220.737 L 526.839 220.737 C 531.219 220.737 532.889 219.489 532.889 216.297 C 532.889 211.832 530.085 211.623 525.888 211.623 Z" style="fill: rgb(255, 255, 255);"/>
    <path d="M 548.607 232.028 C 542.024 232.028 537.047 227.141 537.047 220.707 C 537.047 214.124 541.905 209.237 548.458 209.237 C 553.017 209.237 556.89 211.564 558.585 215.347 L 556.11 215.347 C 554.235 212.395 551.645 211.265 548.543 211.265 C 543.302 211.265 539.28 215.317 539.28 220.618 C 539.28 225.773 543.481 230 548.573 230 C 551.794 230 553.907 228.781 556.229 225.859 L 558.671 225.859 C 556.472 229.945 553.076 232.028 548.607 232.028 Z" style="fill: rgb(255, 255, 255);"/>
    <path d="M 572.301 211.623 L 572.301 219.578 L 580.942 219.578 L 580.942 221.572 L 572.301 221.572 L 572.301 231.64 L 570.098 231.64 L 570.098 209.625 L 581.27 209.625 L 581.27 211.619 L 572.301 211.619 Z" style="fill: rgb(255, 255, 255);"/>
    <path d="M 597.405 231.64 L 591.18 222.228 L 584.925 231.64 L 582.335 231.64 L 589.813 220.379 L 582.752 209.625 L 585.343 209.625 L 591.185 218.445 L 596.992 209.625 L 599.553 209.625 L 592.493 220.379 L 600 231.64 L 597.405 231.64 Z" style="fill: rgb(255, 255, 255);"/>
    <path d="M 563.656 222.616 C 562.761 222.616 562.049 221.905 562.049 221.01 C 562.049 220.119 562.761 219.403 563.656 219.403 C 564.521 219.403 565.262 220.119 565.262 221.01 C 565.262 221.905 564.521 222.616 563.656 222.616 Z" style="fill: rgb(255, 255, 255);"/>
  </g>
</svg>

<svg xmlns="http://www.w3.org/2000/svg" viewBox="0 0 264 102"><g style="stroke-width:1.25"><path d="M42.53 140.62c10.76 0 21.47-.66 31.57-4.51 27.03-9.31 44.94-37.88 44.05-66.08-.79-13.82-5.47-27.5-13.83-38.57-12.44-17.6-34.1-27.57-55.48-27.03L.75 4.4v40.63l-.12.55h.12v148.45h19.57v-53.42m-.2-118.69c11.03-.02 22.04-.26 33.04.25 16.37 1.09 32.28 10.23 40.3 24.74 10.03 17.16 8.89 40.38-3.49 56.06-8.64 11.63-22.7 19.07-37.22 19.3-10.8.16-21.39.08-32.43.08zm310.68 91.56V76.62h-28.79a81 81 0 0 1 1.62 36.86z" style="fill:#fff;stroke-width:1.5625" transform="matrix(.352 0 0 .35168 26.62 15.8)"/><path d="M296.6 134.44a80.7 80.7 0 1 1-3.87-78.79H313A98.5 98.5 0 0 0 224.33 0c-54.4 0-98.5 44.1-98.5 98.5s44.1 98.5 98.5 98.5c41.71 0 77.34-25.94 91.7-62.56zM346.21 4.41V194.1h36.03v-80.62h56.14V76.63h-56.14V42h58.85V4.41h-75.44z" style="fill:#fff;stroke-width:1.5625" transform="matrix(.352 0 0 .35168 26.62 15.8)"/><path d="M514.1 57.62 483.68 4.41h-43.36l52.1 91.13-56.35 98.56h43.36l34.67-60.64 34.68 60.64h43.36l-56.35-98.56 52.1-91.13h-43.36zM20.64 231.64v-19.6l-8.28 19.6h-1.9l-8.26-19.6v19.6H0v-22.01h3.43l8.01 18.73 7.98-18.74h3.43v22.02zm14.02.39c-4.44 0-7.48-2.68-7.48-8.67v-13.74h2.2v13.74c0 4.5 1.86 6.64 5.3 6.64 3.4 0 5.28-2.14 5.28-6.64v-13.74h2.2v13.74c0 5.99-3.03 8.67-7.5 8.67m11.84-.39v-22.01h2.2v20.01h9.12v2zm17.42-20.02v20.02h-2.2v-20.02h-5.04v-2h12.28v2zm7.32 20.02v-22.01h2.21v22.01zm27.2 0v-19.6l-8.28 19.6h-1.9L80 212.04v19.6h-2.2v-22.01h3.42l8.01 18.73 7.99-18.74h3.42v22.02zm6.54 0v-22.01h12.03v1.99h-9.83v7.9h9.5v1.99h-9.5v8.13h9.83v2zm21.71 0h-5.93v-22.01h5.18c4 0 6.32.47 8.4 1.73 3.28 1.93 5 5.2 5 9.35 0 6.35-4.04 10.93-12.65 10.93m6.43-18.59c-1.67-1-3.75-1.43-7.09-1.43h-3.07v18.03h3.07c3.9 0 6.17-.57 7.93-1.97a8.9 8.9 0 0 0 3.15-7.06c0-3.28-1.46-6.05-3.99-7.57m9.61 18.59v-22.01h2.2v22.01zm23.59 0-3.19-7.42H152.9l-3.22 7.42h-2.32l9.44-22.01h2.47l9.47 22.01zm-8.28-19.51-4.32 10.1h8.55zm21.16 19.51v-22.01h12.04v1.99h-9.83v7.9h9.5v1.99h-9.5v8.13h9.83v2zm31.1 0-13.11-19.36v19.36h-2.2v-22.01h2.97l12.33 18.26v-18.26h2.21v22.01zm11.72-20.02v20.02h-2.2v-20.02h-5.04v-2h12.28v2zm7.32 20.02v-22.01h12.04v1.99h-9.83v7.9h9.5v1.99h-9.5v8.13h9.83v2zm24.21-8.22 6.17 8.22h-2.74l-7.42-9.98c6.17 0 8.25-1.07 8.25-5.03 0-3.66-2.26-5-7.39-5h-3.1v20.01h-2.2v-22.01h5.45c6.91 0 9.47 2.5 9.47 7.09 0 3.9-2.26 6.25-6.49 6.7m14.65-11.8v20.02H266v-20.02h-5.04v-2h12.27v2zm22.87 20.02-3.18-7.42h-10.25l-3.22 7.42h-2.32l9.44-22.01H284l9.48 22.01zm-8.28-19.51-4.32 10.1h8.55zm13.09 19.51v-22.01h2.21v22.01zm21.87 0-13.11-19.36v19.36h-2.2v-22.01h2.97l12.34 18.26v-18.26h2.2v22.01zm27.18 0v-19.6l-8.28 19.6h-1.9l-8.26-19.6v19.6h-2.2v-22.01h3.43l8.01 18.73 7.98-18.74h3.43v22.02zm6.54 0v-22.01h12.04v1.99h-9.83v7.9h9.5v1.99h-9.5v8.13h9.83v2zm31.1 0-13.11-19.36v19.36h-2.2v-22.01h2.97l12.34 18.26v-18.26h2.2v22.01zm11.73-20.02v20.02h-2.22v-20.02h-5.03v-2h12.27v2zm21.81 11.12h-4.23v8.9h-2.2v-22.01h6.08c6.04 0 8.48 2.05 8.48 6.67 0 4.17-2.14 6.43-8.13 6.43m-1.1-11.12h-3.13v9.12h4.08c4.38 0 6.05-1.25 6.05-4.44 0-4.47-2.8-4.68-7-4.68m12.11 20.03v-22.01h2.21v20.01h9.12v2zm31.67 0-3.2-7.42h-10.24l-3.22 7.42h-2.32l9.44-22.01h2.48l9.47 22.01zm-8.29-19.51-4.32 10.1h8.55zm18.49 12.15v7.36h-2.2v-7.36l-7.63-14.65h2.44l6.26 12.33 6.4-12.33h2.42zm9.82 7.36v-22.01h12.04v1.99H481v7.9h9.51v1.99h-9.5v8.13h9.83v2zm24.21-8.22 6.17 8.22h-2.74l-7.42-9.98c6.16 0 8.25-1.07 8.25-5.03 0-3.66-2.26-5-7.39-5h-3.1v20.01h-2.2v-22.01h5.45c6.9 0 9.47 2.5 9.47 7.09 0 3.9-2.26 6.25-6.49 6.7m23.97-.68h-4.23v8.9h-2.2v-22.01h6.07c6.05 0 8.5 2.05 8.5 6.67 0 4.17-2.15 6.43-8.14 6.43m-1.1-11.12h-3.13v9.12h4.08c4.38 0 6.05-1.25 6.05-4.44 0-4.47-2.8-4.68-7-4.68m22.71 20.42c-6.58 0-11.55-4.89-11.55-11.32 0-6.59 4.86-11.47 11.4-11.47 4.57 0 8.44 2.32 10.13 6.1h-2.47c-1.88-2.94-4.47-4.07-7.57-4.07a9.15 9.15 0 0 0-9.26 9.35c0 5.15 4.2 9.38 9.3 9.38 3.21 0 5.33-1.22 7.65-4.14h2.44c-2.2 4.09-5.6 6.17-10.06 6.17m23.69-20.41v7.96h8.64v2h-8.64v10.06h-2.2v-22.01h11.17v1.99zm25.1 20.02-6.22-9.41-6.25 9.41h-2.6l7.48-11.26-7.06-10.76h2.6l5.83 8.82 5.81-8.82h2.56l-7.06 10.76 7.51 11.26zm-33.74-9.02c-.9 0-1.61-.71-1.61-1.61s.71-1.6 1.6-1.6c.87 0 1.61.7 1.61 1.6s-.74 1.6-1.6 1.6" style="fill:#fff;stroke-width:1.5625" transform="matrix(.352 0 0 .35168 26.62 15.8)"/></g></svg>
